X:104
T:Calliope House
M:6/8
L:1/8
S:E
R:Jig
K:E
B | eBB gBB | fBB gBB | cff f2 e | fge cec | BcB B2 G |
B2 c e2 f | 1 g2 b gfe | f3-f2 B :|2 gbg fec | e3 e2 g |]
{g}b3 gbb | fbb gbb | {g}a3 gag | fgf fec | BcB B2 G |
B2 c e2 f |1 g2 b gfe | f3-f ga :|2 gbg fec | e3-e2|]
K:D
"Written in D"A | dAA fAA | eAA fAA | Bee e2 d | efd BdB | ABA A2 F
A2 B d2 e | 1 f2 a fed|e3-e2 A :|2 faf edB | d3 d2 f |]
{f}a3 faa | eaa faa | {f}g3 fgf | efe edB | ABA A2 F |
A2 B d2 e |1 f2 a fed | e3-e fg :|2 faf edB | d3-d2 |]
